X: 124
T: My Laddie is a Sailor, a Reel
C: attr. John French (1753-1803)
R: reel
B: "John French Collection", John French ed. p.12 #4
S: http://www.heallan.com/french.asp
Z: 2012 John Chambers <jc:trillian.mit.edu>
M: C
L: 1/8
K: Dm
F | (DEF).G (BA)(GF) | GECG ECGE | DEFG AcFA | GEE D/D/D D :|
c | Ad-de (fe)(dc) | cdef gece | defg (f/g/a) T(gf) | gece d/d/d (de) |
    fafa bagf | (e/f/g) (cg) ecge | fadf {f}edce | dAcE D/D/DD |]

%%sep 2 1 500
%%sep 1 1 500

